assets/images/go.svg

<?xml version="1.0" encoding="UTF-8"?>
<!DOCTYPE svg  PUBLIC '-//W3C//DTD SVG 1.1//EN'  'http://www.w3.org/Graphics/SVG/1.1/DTD/svg11.dtd'>
<svg clip-rule="evenodd" fill-rule="evenodd" stroke-linecap="round" stroke-linejoin="round" stroke-miterlimit="10" version="1.1" viewBox="0 0 100 100" xml:space="preserve" xmlns="http://www.w3.org/2000/svg">
    <g transform="matrix(.23148 0 0 .23148 -.6944 37.061)">
        <path d="m41.071 74.477c0-6.969 5.641-12.618 12.6-12.618 4.081 0 7.697 1.951 10 4.964 5.569-9.111 12.283-16.97 19.913-23.729-3.78-3.658-9.922-6.33-19.563-7.625-31.05-4.174-46.917 11.166-50.542 31.725-3.498 19.838 7.171 41.143 31.004 46.682 2.46-9.685 5.474-18.569 8.95-26.793-6.848-0.129-12.362-5.718-12.362-12.606z" fill="none" stroke="#000" stroke-width="6px"/>
        <path d="m53.671 61.859c-6.959 0-12.6 5.649-12.6 12.618 0 6.888 5.514 12.477 12.362 12.605 2.479-5.866 5.191-11.399 8.112-16.638 0.687-1.231 1.4-2.434 2.126-3.622-2.303-3.012-5.92-4.963-10-4.963z" fill-rule="nonzero"/>
        <path d="m413.98 59.094c-3.625-20.56-19.492-35.899-50.541-31.725-10.765 1.447-17.166 4.61-20.789 8.945 6.867 5.93 13.257 12.745 19.272 20.518 0.292 0.377 0.57 0.758 0.857 1.136 2.296-3.095 5.963-5.109 10.108-5.109 6.959 0 12.6 5.649 12.6 12.618 0 6.109-4.335 11.202-10.093 12.366 4.277 8.283 7.745 17.199 10.521 27.142 21.763-6.551 31.416-26.89 28.065-45.891z" fill="none" stroke="#000" stroke-width="6px"/>
        <path d="m385.49 65.477c0-6.969-5.641-12.618-12.6-12.618-4.146 0-7.812 2.014-10.108 5.109 4.815 6.345 9.007 12.886 12.615 19.875 5.758-1.164 10.093-6.257 10.093-12.366z" fill-rule="nonzero"/>
        <path d="m362.78 57.968c-0.287-0.378-0.565-0.759-0.857-1.136-6.016-7.773-12.405-14.588-19.272-20.518-29.797-25.728-68.582-34.79-124.73-33.123-48.682 1.447-100.47 9.906-134.34 39.903-7.63 6.758-14.343 14.617-19.913 23.729-0.726 1.188-1.439 2.391-2.126 3.622-2.921 5.239-5.633 10.771-8.112 16.638-3.476 8.224-6.49 17.108-8.95 26.793-4.767 18.77-7.463 40.533-7.462 66.257 2e-3 45.133 8.866 67.528 8.332 110.88-0.035 2.846-0.11 5.782-0.231 8.821-0.204 5.119-0.383 10.249-0.543 15.375-1.653 53.107-1.062 105.86-1.499 142.04-0.401 33.204 14.646 62.704 41.845 84.433 10.752 8.59 23.402 15.965 37.752 21.871 25.113 10.337 55.418 16.186 89.844 16.186 50.265 0 87.456-9.652 114.68-24.336 11.459-6.178 21.149-13.249 29.308-20.867 20.359-19.008 31.17-41.422 36.009-61.896 11.47-48.523 9.966-84.08 4.831-158.37-0.103-1.496-0.207-3.002-0.313-4.529-0.588-8.453-1.022-15.947-1.339-22.763-1.733-37.343 0.064-54.317-0.479-96.937-0.463-36.271-3.195-63.161-9.306-85.047-2.776-9.942-6.244-18.858-10.521-27.142-3.61-6.992-7.801-13.534-12.617-19.878z" fill="none" stroke="#000" stroke-width="6px"/>
        <ellipse cx="144.12" cy="91.595" rx="54.9" ry="53.1" fill="none" stroke="#000" stroke-width="6px"/>
        <circle cx="115.32" cy="94.294" r="18.9"/>
        <circle cx="123.42" cy="98.794" r="5.4" fill="#fff"/>
        <ellipse cx="281.82" cy="85.294" rx="54.9" ry="53.1" fill="none" stroke="#000" stroke-width="6px"/>
        <circle cx="253.02" cy="87.995" r="18.9"/>
        <circle cx="261.12" cy="92.495" r="5.4" fill="#fff"/>
        <path d="m214.97 170.34c-10.784 0.188-12.401 4.999-21.685 6.657-0.328 5.727-0.745 13.566-1.163 22.896-0.9 20.1 24.6 15.6 24.6 3.6v-33.132c-0.56-0.021-1.137-0.031-1.752-0.021z" fill="none" stroke="#000" stroke-width="6px"/>
        <path d="m216.72 203.5c0 12 25.5 16.5 24.6-3.6-0.429-9.582-0.857-17.59-1.189-23.353-11.689-0.533-13.115-5.813-23.411-6.179v33.132z" fill="none" stroke="#000" stroke-width="6px"/>
        <path d="m254.67 150.3c-4.354-4.685-9.521-7.238-16.425-8.471-3.664 5.366-12.791 9.169-23.479 9.169-10.278 0-19.112-3.518-23.034-8.56-7.391 1.417-12.753 4.185-17.15 9.26-8.627 9.959-4.437 24.891 7.156 25.695 4.957 0.344 8.624 0.131 11.541-0.391 9.284-1.658 10.901-6.469 21.685-6.657 0.615-0.01 1.192 0 1.752 0.02 10.295 0.366 11.721 5.646 23.411 6.179 2.312 0.105 5.024 0.026 8.289-0.316 11.559-1.207 15.225-16.276 6.254-25.928z" fill="none" stroke="#000" stroke-width="6px"/>
        <path d="m214.77 151c10.688 0 19.814-3.803 23.479-9.169 1.107-1.622 1.722-3.385 1.722-5.231 0-7.953-11.281-14.4-25.2-14.4-13.917 0-25.2 6.447-25.2 14.4 0 2.08 0.778 4.054 2.166 5.84 3.92 5.042 12.755 8.56 23.033 8.56z" fill-rule="nonzero"/>
    </g>
</svg>

<?xml version="1.0" encoding="UTF-8" standalone="no"?>
<!DOCTYPE svg PUBLIC "-//W3C//DTD SVG 1.1//EN" "http://www.w3.org/Graphics/SVG/1.1/DTD/svg11.dtd">
<svg width="100%" height="100%" viewBox="0 0 100 100" version="1.1" xmlns="http://www.w3.org/2000/svg" xmlns:xlink="http://www.w3.org/1999/xlink" xml:space="preserve" xmlns:serif="http://www.serif.com/" style="fill-rule:evenodd;clip-rule:evenodd;stroke-linecap:round;stroke-linejoin:round;stroke-miterlimit:10;">
    <g id="go" transform="matrix(0.23148,0,0,0.23148,-0.694405,37.0606)">
        <path d="M41.071,74.477C41.071,67.508 46.712,61.859 53.671,61.859C57.752,61.859 61.368,63.81 63.671,66.823C69.24,57.712 75.954,49.853 83.584,43.094C79.804,39.436 73.662,36.764 64.021,35.469C32.971,31.295 17.104,46.635 13.479,67.194C9.981,87.032 20.65,108.337 44.483,113.876C46.943,104.191 49.957,95.307 53.433,87.083C46.585,86.954 41.071,81.365 41.071,74.477Z" style="fill:none;fill-rule:nonzero;stroke:black;stroke-width:6px;"/>
        <path d="M53.671,61.859C46.712,61.859 41.071,67.508 41.071,74.477C41.071,81.365 46.585,86.954 53.433,87.082C55.912,81.216 58.624,75.683 61.545,70.444C62.232,69.213 62.945,68.01 63.671,66.822C61.368,63.81 57.751,61.859 53.671,61.859Z" style="fill-rule:nonzero;"/>
        <path d="M413.979,59.094C410.354,38.534 394.487,23.195 363.438,27.369C352.673,28.816 346.272,31.979 342.649,36.314C349.516,42.244 355.906,49.059 361.921,56.832C362.213,57.209 362.491,57.59 362.778,57.968C365.074,54.873 368.741,52.859 372.886,52.859C379.845,52.859 385.486,58.508 385.486,65.477C385.486,71.586 381.151,76.679 375.393,77.843C379.67,86.126 383.138,95.042 385.914,104.985C407.677,98.434 417.33,78.095 413.979,59.094Z" style="fill:none;fill-rule:nonzero;stroke:black;stroke-width:6px;"/>
        <path d="M385.486,65.477C385.486,58.508 379.845,52.859 372.886,52.859C368.74,52.859 365.074,54.873 362.778,57.968C367.593,64.313 371.785,70.854 375.393,77.843C381.151,76.679 385.486,71.586 385.486,65.477Z" style="fill-rule:nonzero;"/>
        <path d="M362.778,57.968C362.491,57.59 362.213,57.209 361.921,56.832C355.905,49.059 349.516,42.244 342.649,36.314C312.852,10.586 274.067,1.524 217.921,3.191C169.239,4.638 117.448,13.097 83.584,43.094C75.954,49.852 69.241,57.711 63.671,66.823C62.945,68.011 62.232,69.214 61.545,70.445C58.624,75.684 55.912,81.216 53.433,87.083C49.957,95.307 46.943,104.191 44.483,113.876C39.716,132.646 37.02,154.409 37.021,180.133C37.023,225.266 45.887,247.661 45.353,291.012C45.318,293.858 45.243,296.794 45.122,299.833C44.918,304.952 44.739,310.082 44.579,315.208C42.926,368.315 43.517,421.07 43.08,457.244C42.679,490.448 57.726,519.948 84.925,541.677C95.677,550.267 108.327,557.642 122.677,563.548C147.79,573.885 178.095,579.734 212.521,579.734C262.786,579.734 299.977,570.082 327.205,555.398C338.664,549.22 348.354,542.149 356.513,534.531C376.872,515.523 387.683,493.109 392.522,472.635C403.992,424.112 402.488,388.555 397.353,314.264C397.25,312.768 397.146,311.262 397.04,309.735C396.452,301.282 396.018,293.788 395.701,286.972C393.968,249.629 395.765,232.655 395.222,190.035C394.759,153.764 392.027,126.874 385.916,104.988C383.14,95.046 379.672,86.13 375.395,77.846C371.785,70.854 367.594,64.312 362.778,57.968Z" style="fill:none;fill-rule:nonzero;stroke:black;stroke-width:6px;"/>
        <ellipse cx="144.121" cy="91.595" rx="54.9" ry="53.1" style="fill:none;stroke:black;stroke-width:6px;"/>
        <circle cx="115.321" cy="94.294" r="18.9"/>
        <circle cx="123.421" cy="98.794" r="5.4" style="fill:white;"/>
        <ellipse cx="281.821" cy="85.294" rx="54.9" ry="53.1" style="fill:none;stroke:black;stroke-width:6px;"/>
        <circle cx="253.021" cy="87.995" r="18.9"/>
        <circle cx="261.121" cy="92.495" r="5.4" style="fill:white;"/>
        <path d="M214.968,170.343C204.184,170.531 202.567,175.342 193.283,177C192.955,182.727 192.538,190.566 192.12,199.896C191.22,219.996 216.72,215.496 216.72,203.496L216.72,170.364C216.16,170.343 215.583,170.333 214.968,170.343Z" style="fill:none;fill-rule:nonzero;stroke:black;stroke-width:6px;"/>
        <path d="M216.72,203.495C216.72,215.495 242.22,219.995 241.32,199.895C240.891,190.313 240.463,182.305 240.131,176.542C228.442,176.009 227.016,170.729 216.72,170.363L216.72,203.495Z" style="fill:none;fill-rule:nonzero;stroke:black;stroke-width:6px;"/>
        <path d="M254.674,150.297C250.32,145.612 245.153,143.059 238.249,141.826C234.585,147.192 225.458,150.995 214.77,150.995C204.492,150.995 195.658,147.477 191.736,142.435C184.345,143.852 178.983,146.62 174.586,151.695C165.959,161.654 170.149,176.586 181.742,177.39C186.699,177.734 190.366,177.521 193.283,176.999C202.567,175.341 204.184,170.53 214.968,170.342C215.583,170.332 216.16,170.342 216.72,170.362C227.015,170.728 228.441,176.008 240.131,176.541C242.443,176.646 245.155,176.567 248.42,176.225C259.979,175.018 263.645,159.949 254.674,150.297Z" style="fill:none;fill-rule:nonzero;stroke:black;stroke-width:6px;"/>
        <path d="M214.771,150.995C225.459,150.995 234.585,147.192 238.25,141.826C239.357,140.204 239.972,138.441 239.972,136.595C239.972,128.642 228.691,122.195 214.772,122.195C200.855,122.195 189.572,128.642 189.572,136.595C189.572,138.675 190.35,140.649 191.738,142.435C195.658,147.477 204.493,150.995 214.771,150.995Z" style="fill-rule:nonzero;"/>
    </g>
</svg>
